lib/flags/bh-bahrain.svg

<svg xmlns="http://www.w3.org/2000/svg" fill="none" aria-hidden="true" viewBox="0 0 42 30"><g filter="url(#a)"><g clip-path="url(#b)"><mask id="c" width="36" height="24" x="3" y="2" maskUnits="userSpaceOnUse" style="mask-type:alpha"><path fill="#fff" d="M3 2h36v24H3z"/></mask><g mask="url(#c)"><path fill="#E31D1C" d="M3 2h36v24H3z"/><path fill="#F7FCFF" fill-rule="evenodd" d="M3 2h7.65l5.85 2-5.85 2 5.85 2-5.85 2 5.85 2-5.85 2 5.85 2-5.85 2 5.85 2-5.85 2 5.85 2-5.85 2H3V2Z" clip-rule="evenodd"/></g></g></g><defs><clipPath id="b"><rect width="36" height="24" x="3" y="2" fill="#fff" rx="2"/></clipPath><filter id="a" width="42" height="30" x="0" y="0" color-interpolation-filters="sRGB" filterUnits="userSpaceOnUse"><feFlood flood-opacity="0" result="BackgroundImageFix"/><feColorMatrix in="SourceAlpha" result="hardAlpha" values="0 0 0 0 0 0 0 0 0 0 0 0 0 0 0 0 0 0 127 0"/><feOffset dy="1"/><feGaussianBlur stdDeviation="1"/><feColorMatrix values="0 0 0 0 0.0627451 0 0 0 0 0.0941176 0 0 0 0 0.156863 0 0 0 0.06 0"/><feBlend in2="BackgroundImageFix" result="effect1_dropShadow_91_29634"/><feColorMatrix in="SourceAlpha" result="hardAlpha" values="0 0 0 0 0 0 0 0 0 0 0 0 0 0 0 0 0 0 127 0"/><feOffset dy="1"/><feGaussianBlur stdDeviation="1.5"/><feColorMatrix values="0 0 0 0 0.0627451 0 0 0 0 0.0941176 0 0 0 0 0.156863 0 0 0 0.1 0"/><feBlend in2="effect1_dropShadow_91_29634" result="effect2_dropShadow_91_29634"/><feBlend in="SourceGraphic" in2="effect2_dropShadow_91_29634" result="shape"/></filter></defs></svg>

<svg xmlns="http://www.w3.org/2000/svg" fill="none" aria-hidden="true" viewBox="0 0 42 30"><g id="Country=BH - Bahrain, Size=sm (36x24)" filter="url(#filter0_dd_91_29634)"><g clip-path="url(#clip0_91_29634)"><g id="flag"><mask id="mask0_91_29634" width="36" height="24" x="3" y="2" maskUnits="userSpaceOnUse" style="mask-type:alpha"><rect id="mask" width="36" height="24" x="3" y="2" fill="white"/></mask><g mask="url(#mask0_91_29634)"><g id="contents"><rect id="background" width="36" height="24" x="3" y="2" fill="#E31D1C"/><path id="middle" fill="#F7FCFF" fill-rule="evenodd" d="M3 2H10.65L16.5 4L10.65 6L16.5 8L10.65 10L16.5 12L10.65 14L16.5 16L10.65 18L16.5 20L10.65 22L16.5 24L10.65 26H3V2Z" clip-rule="evenodd"/></g></g></g></g></g><defs><filter id="filter0_dd_91_29634" width="42" height="30" x="0" y="0" color-interpolation-filters="sRGB" filterUnits="userSpaceOnUse"><feFlood flood-opacity="0" result="BackgroundImageFix"/><feColorMatrix in="SourceAlpha" result="hardAlpha" values="0 0 0 0 0 0 0 0 0 0 0 0 0 0 0 0 0 0 127 0"/><feOffset dy="1"/><feGaussianBlur stdDeviation="1"/><feColorMatrix values="0 0 0 0 0.0627451 0 0 0 0 0.0941176 0 0 0 0 0.156863 0 0 0 0.06 0"/><feBlend in2="BackgroundImageFix" result="effect1_dropShadow_91_29634"/><feColorMatrix in="SourceAlpha" result="hardAlpha" values="0 0 0 0 0 0 0 0 0 0 0 0 0 0 0 0 0 0 127 0"/><feOffset dy="1"/><feGaussianBlur stdDeviation="1.5"/><feColorMatrix values="0 0 0 0 0.0627451 0 0 0 0 0.0941176 0 0 0 0 0.156863 0 0 0 0.1 0"/><feBlend in2="effect1_dropShadow_91_29634" result="effect2_dropShadow_91_29634"/><feBlend in="SourceGraphic" in2="effect2_dropShadow_91_29634" result="shape"/></filter><clipPath id="clip0_91_29634"><rect width="36" height="24" x="3" y="2" fill="white" rx="2"/></clipPath></defs></svg>
